!!!COM: Arr. Moyses Santos
!!!OTL: 10,000 Hours (feat. Justin Bieber)
**kern
*part1
*staff1
*
*
*clefG2
*k[b-e-]
*B-:
*M4/4
*MM90
!LO:TX:a:t=[quarter]=90
4r
=1
*^
8raa	4ryy
16fLL	.
16gJJ	.
8ddL	8.b-
16ee-k	.
*v	*v
8fJ 8cc
16raa
16fLL
16fJJ
8ccL
16ddL
[16gJJ [16b-
=2
8gL] 8b-]
16fL
16gJJ
8e-L 8g
16fL
16dJJ
8fL
16dL
16cJJ
8B-L 8d
8cJ
=3
*^
8raa	4ryy
16fLL	.
16gJJ	.
8ddL	8.b-
16ee-k	.
*v	*v
8fJ 8cc
16raa
16fLL
16fJJ
8ccL
16ddL
[16gJJ [16b-
!!linebreak:original
=4
8gL] 8b-]
16fL
16gJJ
16gLL
16fJJ
4d 4b-
8r
8r
16fLL
16gJJ
=5||
4f 4b-
4f 4b-
4g 4b-
8.gL 8.b-
16fJk
=6
4e- 4b-
4e- 4b-
8gL 8cc
8b-J 8dd
8r
16fLL
16gJJ
=7
4f 4b-
4f 4b-
8.gL 8.b-
16fJk
16gLL 16dd
16gJ 16cc
[8gJ [8cc
!!linebreak:original
=8
8gL] 8cc]
8fJ 8dd
4r
8ddd'
8r
8fL 8b-
8fJ 8b-
=9||
8b-L 8gg
8b- 8ff
8b-J 8gg
4g 4dd
8g 8cc
8.dL 8.b-
16gJk
=10
8e-L 8b-
8f 8cc
8gJ 8dd
4.b- 4.dd
8B-L 8f
8cJ 8g
=11
8dL 8b-
8f 8cc
8b-J 8ff
4g 4dd
8fL 8cc
8e- 8b-
8cJ 8g
=12
[8e-L 8b-
8e-J] 8cc
[16e-LL 16dd
16e-_ 16b-
16e-JJ] 16cc
4d 4b-
16r
8fL 8b-
8fJ 8b-
!!linebreak:original
=13
8b-L 8gg
8b- 8ff
8b-J 8gg
4g 4dd
8f 8cc
8.dL 8.b-
16gJk
=14
8e-L 8b-
8f 8cc
8gJ 8dd
4b- 4ee-
8b-L 8dd
8B- 8f
8cJ 8g
=15
8dL 8b-
8f 8cc
8b-J 8ff
4g 4dd
8fL 8cc
8e- 8b-
8dJ 8g
=16
8e-L 8b-
8fJ 8cc
[16gLL 16dd
16g_ 16b-
16gJ] 16cc
8d 8f 8b-
8.b-J 8.dd
16gLL 16cc
16fJ 16b-
[8fJ [8b-
=17
8f] 8b-]
4d 4g
2d 2g 2b-
8d 8g
!!linebreak:original
=18
[4e- [4g 4cc
8e-] 8g] 8b-
4B- 4d 4f
8r
4r
=19||
*^
8raa	4ryy
16fLL	.
16gJJ	.
8ddL	8.b-
16ee-k	.
*v	*v
8fJ 8cc
16raa
16fLL
16fJJ
16ccKL
8dd
[16gJk [16b-
=20
8gL] 8b-]
16gL
16gJJ
16gLL
16f
16f
16dJJ
8fL
16dL
16cJJ
8B-L 8d
8cJ
=21
*^
8raa	4ryy
16fLL	.
16gJJ	.
8ddL	8.b-
16ee-k	.
*v	*v
8fJ 8cc
16raa
16fLL
16fJJ
8ccL
16ddL
[16gJJ [16b-
!!pagebreak:original
=22
8gL] 8b-]
16fL
16gJJ
16gLL
16fJ
8.d 8.dd
8cc
32ccLL
32b-JJJ
8fL
16fL
16gJJ
=23
4f 4b-
4f 4b-
4g 4b-
8.gL 8.b-
16fJk
=24
4e- 4b-
4e- 4b-
8qcc/
8b-L 8dd
8aJ 8cc
8r
16fLL
16gJJ
=25
4f 4b-
4f 4b-
8.gL 8.b-
16fJk
16gLL 16dd
16gJ 16cc
[8gJ [8cc
!!linebreak:original
=26
16gLL] 16cc]
16.dd
16.ee-JJ
24ddLL
24ee-
24ccJ
8gJ
8.ccL
16ddJk
8fL 8b-
8fJ 8b-
=27
8b-L 8gg
8b- 8ff
8b-J 8gg
4g 4dd
8g 8cc
8.dL 8.b-
16gJk
=28
8e-L 8b-
8f 8cc
8gJ 8dd
4.b- 4.dd
8B-L 8f
8cJ 8g
=29
8dL 8b-
8f 8cc
8b-J 8ff
4g 4dd
8fL 8cc
8e- 8b-
8cJ 8g
!!linebreak:original
=30
[8e-L 8b-
8e-J] 8cc
[16e-LL 16dd
16e-_ 16b-
16e-JJ] 16cc
4d 4b-
16r
8fL 8b-
8fJ 8b-
=31
8b-L 8gg
8b- 8ff
8b-J 8gg
4g 4dd
8f 8cc
8.dL 8.b-
16gJk
=32
8e-L 8b-
8f 8cc
8gJ 8dd
4b- 4ee-
8b-L 8dd
8B- 8f
8cJ 8g
=33
8dL 8b-
8f 8cc
8b-J 8ff
4g 4dd
8fL 8cc
8e- 8b-
8dJ 8g
!!linebreak:original
=34
8e-L 8b-
8fJ 8cc
[16gLL 16dd
16g_ 16b-
16gJ] 16cc
8d 8f 8b-
8.b-J 8.dd
16gLL 16cc
16fJ 16b-
[8fJ [8b-
=35
8f] 8b-]
4d 4g
2d 2g 2b-
8d 8g
=36
[4e- [4g 4cc
8e-L] 8g] 8b-
8.B- 8.d 8.f
8.b-J 8.dd
16gLL 16cc
16fJ 16b-
[8fJ [8b-
=37
8f] 8b-]
4d 4g
2d 2g 2b-
8d 8g
=38
[4e- [4g 4cc
8e-] 8g] 8b-
2B- 2d 2f
8r
!!linebreak:original
=39||
4.r
4.cc 4.ff
12r
12ddL
12ffJ
=40
12b-L 12gg
12ff
12ddJ
12aL 12ff
12dd
12ccJ
12gL 12dd
12cc
12b-J
8.aL 8.cc
16ddJk
=41
8a 8cc
8r
8r
4.cc 4.ff
12r
12ddL
12ffJ
=42
8ggL
8ff
8ff
8ddJ
8ddL
8b-J
4cc
=43
4.r
16b-LL
16ccJJ
16ee-LL
16dd
16cc
16b-JJ
8fL 8b-
8fJ 8b-
!!linebreak:original
=44||
8b-L 8gg
8b- 8ff
8b-J 8gg
4g 4dd
8g 8cc
8.dL 8.b-
16gJk
=45
8e-L 8b-
8f 8cc
8gJ 8dd
4.b- 4.dd
8B-L 8f
8cJ 8g
=46
8dL 8b-
8f 8cc
8b-J 8ff
4g 4dd
8fL 8cc
8e- 8b-
8cJ 8g
=47
[8e-L 8b-
8e-J] 8cc
[16e-LL 16dd
16e-_ 16b-
16e-JJ] 16cc
4d 4b-
16r
8fL 8b-
8fJ 8b-
=48
8ffL 8bb-
8aa
8ffJ
4b- 4dd
8f 8cc
8.dL 8.b-
16gJk
!!pagebreak:original
=49
8e-L 8b-
8f 8cc
8gJ 8dd
4b- 4ee-
8b-L 8dd
8B- 8f
8cJ 8g
=50
8dL 8b-
8f 8cc
8b-J 8ff
4g 4dd
8fL 8cc
8e- 8b-
8dJ 8g
=51
8e-L 8b-
8e- 8cc
8e- 8dd
8dJ 8f 8b-
16r
8.b- 8.dd
16gLL 16cc
16fJ 16b-
[8fJ [8b-
=52
8f] 8b-]
4d 4g
2d 2g 2b-
8d 8g
=53
[4e- [4g 4cc
8e-L] 8g] 8b-
8.B- 8.d 8.f
8.b-J 8.dd
16gLL 16cc
16fJ 16b-
[8fJ [8b-
!!linebreak:original
=54
8f] 8b-]
4f 4dd
2d 2g 2b-
8d 8g
=55
[4e- [4g 4cc
8e-L] 8g] 8b-
8.B- 8.d 8.f
8.b-J 8.dd
16gLL 16cc
16fJ 16b-
[8fJ [8b-
=56
8f] 8b-]
4f 4b-
2d 2g 2b-
8d 8g
=57
[4e- [4g 4cc
8e-] 8g] 8b-
2B-; 2d 2f
8r
==
*-
!!!system-decoration: {(s1,s2)}
!!!YEM: © 2019 Piano LED Company. All right reserved. Used by permission.
